dist/svg/u1FA85.svg

<?xml version="1.0" encoding="UTF-8"?><svg id="a" xmlns="http://www.w3.org/2000/svg" viewBox="0 0 40 40"><g><path d="M38.059,10.23l-6.63-3.143c-.353-.168-.579-.524-.579-.915V3.052c0-.418-.368-.734-.784-.694-2.987,.285-4.655,2.174-5.509,3.631-.511,.872-.773,1.863-.773,2.874v6.129c0,1.225-.993,2.218-2.218,2.218H9.039c-.121,0-.235,.025-.354,.036-1.329-1.365-3.003-1.983-4.462-1.452-2.28,.83-3.167,4.144-1.98,7.402,.625,1.718,1.704,3.071,2.916,3.85v9.52c0,.6,.486,1.086,1.086,1.086h4.138c.6,0,1.085-.486,1.085-1.086v-4.304c0-2.033,1.648-3.682,3.682-3.682h6.819c2.033,0,3.682,1.648,3.682,3.682v4.304c0,.6,.486,1.086,1.086,1.086h4.087c.6,0,1.085-.486,1.085-1.086V18.662c0-1.072,.703-2.016,1.729-2.325l4.282-1.288c.417-.125,.703-.51,.703-.945v-2.982c0-.381-.22-.729-.564-.892Z" fill="#fdaeb3"/><path d="M38.059,10.23l-6.63-3.143c-.353-.168-.579-.524-.579-.915V3.052c0-.418-.368-.734-.784-.694-2.987,.285-4.655,2.174-5.509,3.631-.511,.872-.773,1.863-.773,2.874v6.129c0,1.225-.993,2.218-2.218,2.218H9.039c-.121,0-.235,.025-.354,.036-1.329-1.365-3.003-1.983-4.462-1.452-2.28,.83-3.167,4.144-1.98,7.402,.169,.464,.376,.895,.604,1.302,.136,.241,.288,.46,.441,.679l.679-.679,1.053-1.053,1.053,1.053,1.971,1.971,1.971-1.971,1.053-1.053,1.053,1.053,1.971,1.971,1.971-1.971,1.053-1.053,1.053,1.053,1.971,1.971,1.971-1.971,1.053-1.053,1.053,1.053,1.971,1.971,1.971-1.971,1.053-1.053,1.053,1.053,1.638,1.638v-7.475c0-1.072,.703-2.016,1.729-2.325l4.282-1.288c.417-.125,.703-.51,.703-.945v-2.982c0-.381-.22-.729-.564-.892Z" fill="#a8bfff"/><circle cx="30.766" cy="10.455" r="1.342" fill="#3d3d3d"/></g><rect width="40" height="40" fill="none"/></svg>

<svg id="Layer_1" data-name="Layer 1" xmlns="http://www.w3.org/2000/svg" viewBox="0 0 40 40"><defs><style>.cls-1{fill:#fdaeb3;}.cls-2{fill:#a8bfff;}.cls-3{fill:#3d3d3d;}.cls-4{fill:none;}</style></defs><path class="cls-1" d="M38.059,10.23l-6.63-3.142a1.014,1.014,0,0,1-.579-.915V3.052a.707.707,0,0,0-.784-.694,7.046,7.046,0,0,0-5.509,3.631,5.665,5.665,0,0,0-.773,2.874v6.129a2.218,2.218,0,0,1-2.218,2.219H9.039c-.121,0-.235.025-.353.035-1.329-1.365-3-1.983-4.462-1.452-2.28.831-3.167,4.145-1.981,7.4a7.7,7.7,0,0,0,2.916,3.85v9.519a1.086,1.086,0,0,0,1.086,1.086h4.138a1.086,1.086,0,0,0,1.086-1.086v-4.3a3.681,3.681,0,0,1,3.681-3.682h6.82a3.681,3.681,0,0,1,3.681,3.682v4.3a1.086,1.086,0,0,0,1.086,1.086h4.088a1.086,1.086,0,0,0,1.085-1.086v-17.9a2.427,2.427,0,0,1,1.728-2.324L37.92,15.05a.988.988,0,0,0,.7-.945V11.122A.989.989,0,0,0,38.059,10.23Z"/><path class="cls-2" d="M38.059,10.23l-6.63-3.142a1.014,1.014,0,0,1-.579-.915V3.052a.707.707,0,0,0-.784-.694,7.046,7.046,0,0,0-5.509,3.631,5.665,5.665,0,0,0-.773,2.874v6.129a2.218,2.218,0,0,1-2.218,2.219H9.039c-.121,0-.235.025-.353.035-1.329-1.365-3-1.983-4.462-1.452-2.28.831-3.167,4.145-1.981,7.4a8.773,8.773,0,0,0,.605,1.3,8.074,8.074,0,0,0,.441.679l.679-.679,1.053-1.054L6.075,24.5,8.046,26.47,10.017,24.5l1.054-1.054L12.124,24.5,14.1,26.47,16.066,24.5l1.054-1.054L18.173,24.5l1.971,1.971L22.116,24.5l1.053-1.054L24.222,24.5l1.972,1.971L28.165,24.5l1.053-1.054L30.272,24.5l1.638,1.638V18.662a2.427,2.427,0,0,1,1.728-2.324L37.92,15.05a.988.988,0,0,0,.7-.945V11.122A.989.989,0,0,0,38.059,10.23Z"/><circle class="cls-3" cx="30.766" cy="10.455" r="1.342"/><rect class="cls-4" width="40" height="40"/></svg>
